img/icon-html.svg

<svg fill="none" height="24" viewBox="0 0 22 24" width="22" xmlns="http://www.w3.org/2000/svg"><g clip-rule="evenodd" fill-rule="evenodd"><path d="m11.0034.322021h-10.525617l2.066047 20.857279 8.45957 2.4195 8.4526-2.4195 2.1335-20.857279" fill="#e4492f"/><path d="m2.88708 20.9169 8.10972 2.2809 8.1025-2.2809 2.073-20.259728h-20.277387zm8.11612 3.083-8.80249-2.4783-2.20071-21.5216h22l-2.1939 21.5216z" fill="#131741"/><path d="m17.7977 19.9762 1.79-18.10962h-8.6678v19.91732" fill="#e96d31"/><path d="m14.0156 15.4147-3.0956 1.2094-3.02197-.9399v-2.0113l-2.82659-.0722.34317 3.9572 5.43759 1.7418 5.5592-1.6105.6933-7.92095h-9.82585l-.276-2.67552h10.31045l.1413-2.623h-13.2649l.76053 7.84897h9.07207" fill="#fff"/></g></svg>

<svg width="22" height="24" viewBox="0 0 22 24" fill="none" xmlns="http://www.w3.org/2000/svg">
<path fill-rule="evenodd" clip-rule="evenodd" d="M11.0034 0.322021H0.477783L2.54383 21.1793L11.0034 23.5988L19.456 21.1793L21.5895 0.322021" fill="#E4492F"/>
<path fill-rule="evenodd" clip-rule="evenodd" d="M2.88708 20.9169L10.9968 23.1978L19.0993 20.9169L21.1723 0.657172H0.894913L2.88708 20.9169ZM11.0032 23.9999L2.20071 21.5216L0 0H22L19.8061 21.5216L11.0032 23.9999Z" fill="#131741"/>
<path fill-rule="evenodd" clip-rule="evenodd" d="M17.7977 19.9762L19.5877 1.86658H10.9199V21.7839" fill="#E96D31"/>
<path fill-rule="evenodd" clip-rule="evenodd" d="M14.0156 15.4147L10.92 16.6241L7.89803 15.6842V13.6729L5.07144 13.6007L5.41461 17.5579L10.8522 19.2997L16.4114 17.6892L17.1047 9.76825H7.27885L7.00285 7.09273H17.3133L17.4546 4.46973H4.1897L4.95023 12.3187H14.0223" fill="white"/>
</svg>
